X:19041
T:Sandy River Belle
R:Reel
C:Trad.
O:USA
Z:Paul Hardy's Session Tunebook 2022 (see www.paulhardy.net). Creative Commons cc by-nc-sa licenced.
M:4/4
L:1/4
Q:1/4=160
K:D
"D"A,/B,/D/E/ F2|"Em"ED "A7"BA|"D"A,/B,/D/E/ F2|"Em"ED "A7"B,A,|"D"A,/B,/D/E/ F2|"Em"ED "A7"BA|"D"Ad/B/ "G"Ad/B/|"A7"A/F/E "D"D2:|
|:"D"Ad/A/ B/A/F|Af ed|Ad/A/ B/A/F|B/A/F "A7"e2|"D"Ad/A/ B/A/F|A/d/f/d/ "G"e/d/B/d/|"D"Ad/A/ "G"B/A/d/B/|"A7"A/F/E "D"D2:|

